app/component-library/components/Icons/Icon/assets/tilde.svg

<svg width="24" height="24" viewBox="0 0 24 24" fill="none" xmlns="http://www.w3.org/2000/svg">
<path d="M3.25 15C2.55964 15 2.01014 14.4386 2.1497 13.7625C2.5123 12.0058 3.75323 9 8 9C12 9 12.5 12.5 15.5 12.5C17.9108 12.5 18.8686 11.2286 19.2492 10.2184C19.4925 9.57232 20.0596 9 20.75 9C21.4404 9 21.9899 9.56141 21.8503 10.2375C21.4877 11.9942 20.2468 15 16 15C12 15 10.5 11.5 8.5 11.5C6.08917 11.5 5.13136 12.7714 4.75084 13.7816C4.50749 14.4277 3.94036 15 3.25 15Z" fill="currentColor"/>
</svg>

<svg xmlns="http://www.w3.org/2000/svg" width="24" height="24" viewBox="0 0 24 24" fill="none"><path fill="currentColor" d="M3.25 15c-.69 0-1.24-.561-1.1-1.238C2.512 12.006 3.753 9 8 9c4 0 4.5 3.5 7.5 3.5 2.41 0 3.369-1.271 3.75-2.282.242-.646.81-1.218 1.5-1.218s1.24.561 1.1 1.238C21.488 11.994 20.247 15 16 15c-4 0-5.5-3.5-7.5-3.5-2.41 0-3.369 1.271-3.75 2.282-.243.646-.81 1.218-1.5 1.218Z"/></svg>
